file/fox-corporation.svg

<?xml version="1.0" encoding="UTF-8" standalone="no"?>
<!DOCTYPE svg PUBLIC "-//W3C//DTD SVG 1.1//EN" "http://www.w3.org/Graphics/SVG/1.1/DTD/svg11.dtd">
<svg width="100%" height="100%" viewBox="0 0 560 400" version="1.1" xmlns="http://www.w3.org/2000/svg" xmlns:xlink="http://www.w3.org/1999/xlink" xml:space="preserve" xmlns:serif="http://www.serif.com/" style="fill-rule:evenodd;clip-rule:evenodd;stroke-linejoin:round;stroke-miterlimit:1.41421;">
    <g id="path1371_1_" transform="matrix(0.196819,0,0,0.196819,100,122.323)">
        <path d="M490.089,215.8L224.389,215.8C223.289,248.8 224.189,285.3 223.889,318.5C295.689,319.1 368.589,318.6 440.889,318.7L440.889,534C368.089,534.2 294.689,533.7 222.289,534.2C222.389,619.6 222.789,703.4 222.789,788.8C222.789,789.1 222.689,789.2 222.589,789.3L1.089,789.3C0.689,789.4 0.689,789.1 0.389,789.1C-0.111,526.9 -0.111,263 0.289,0.7C0.289,0.4 0.289,0 0.489,0L474.989,0C475.289,0 475.389,0 475.489,0.2C480.489,72 485.289,143.9 490.089,215.8ZM1829.09,787.9L1578.99,787.9C1576.69,787.9 1572.49,777.8 1571.29,775.7C1536.89,713.6 1502.49,651.2 1468.29,589.2C1431.69,655.2 1396.09,722.3 1359.59,788.4C1277.69,788.6 1196.49,788 1115.29,788.2C1124.49,771 1134.29,754.2 1144.09,737.3C1212.39,619.3 1279.69,499.7 1348.09,381.6C1275.39,254.6 1201.59,128.6 1128.49,1.9C1128.29,1.9 1127.79,1.1 1128.29,1.2L1379.59,1.2C1410.49,57.4 1440.59,114.3 1470.99,170.9C1502.59,114.8 1533.09,57.6 1564.39,1.2L1807.29,1.2C1807.49,2.2 1806.79,3.3 1806.29,4.1C1735.39,128.7 1662.79,253.7 1591.99,378.5C1670.69,515.099 1750.89,651.599 1829.09,787.9ZM1221.89,306.5C1228.29,332.5 1231.99,361.1 1231.99,391.2C1231.99,485.1 1204.79,554.7 1166.99,611.3C1160.59,620.9 1154.09,630.1 1147.09,638.9C1126.59,664.9 1101.79,688.6 1074.09,708.3C1055.49,721.5 1036.09,733.5 1014.59,743.6C971.789,763.7 920.089,779.4 860.489,779.4C767.289,779.4 698.489,751 642.789,712C587.089,672.9 543.689,621.2 514.189,556C494.389,512.3 481.389,461.9 479.889,400.5C479.189,370.1 482.989,340.1 488.489,314.1C502.489,248.5 529.989,197.1 564.789,152.8C599.589,108.6 643.689,74 696.989,47.9C717.889,37.7 741.289,29 766.789,22.7C792.289,16.4 820.489,12.1 850.989,12.1L851.489,12.1C881.289,10.7 912.889,15.5 937.689,21C963.489,26.7 987.389,35.4 1008.69,45C1074.69,74.8 1123.89,119.4 1163.49,175.1C1189.59,211.599 1209.19,255.399 1221.89,306.5ZM921.889,567.1C924.289,557.5 923.589,545.2 923.589,532.5L923.589,243.5C923.589,231.1 922.189,221.5 918.589,212.5C915.289,204.3 910.189,196.8 904.189,190.7C892.489,178.8 874.889,168.1 852.789,169.8C842.089,170.6 833.189,174 825.389,178.9C810.889,188.1 799.889,202.2 795.389,220.9C793.089,230.4 793.189,242.5 793.189,255L793.189,544C793.189,550.2 792.889,556.2 793.689,561.5C795.789,576.7 802.589,588.9 811.489,598C822.989,609.7 840.789,619.5 863.789,617C893.489,613.8 915.289,594.1 921.889,567.1Z" style="fill:rgb(0,40,133);fill-rule:nonzero;"/>
    </g>
</svg>

<svg clip-rule="evenodd" fill-rule="evenodd" stroke-linejoin="round" stroke-miterlimit="1.41421" viewBox="0 0 560 400" xmlns="http://www.w3.org/2000/svg"><path d="m490.089 215.8h-265.7c-1.1 33-.2 69.5-.5 102.7 71.8.6 144.7.1 217 .2v215.3c-72.8.2-146.2-.3-218.6.2.1 85.4.5 169.2.5 254.6 0 .3-.1.4-.2.5h-221.5c-.4.1-.4-.2-.7-.2-.5-262.2-.5-526.1-.1-788.4 0-.3 0-.7.2-.7h474.5c.3 0 .4 0 .5.2 5 71.8 9.8 143.7 14.6 215.6zm1339.001 572.1h-250.1c-2.3 0-6.5-10.1-7.7-12.2-34.4-62.1-68.8-124.5-103-186.5-36.6 66-72.2 133.1-108.7 199.2-81.9.2-163.1-.4-244.3-.2 9.2-17.2 19-34 28.8-50.9 68.3-118 135.6-237.6 204-355.7-72.7-127-146.5-253-219.6-379.7-.2 0-.7-.8-.2-.7h251.3c30.9 56.2 61 113.1 91.4 169.7 31.6-56.1 62.1-113.3 93.4-169.7h242.9c.2 1-.5 2.1-1 2.9-70.9 124.6-143.5 249.6-214.3 374.4 78.7 136.599 158.9 273.099 237.1 409.4zm-607.2-481.4c6.4 26 10.1 54.6 10.1 84.7 0 93.9-27.2 163.5-65 220.1-6.4 9.6-12.9 18.8-19.9 27.6-20.5 26-45.3 49.7-73 69.4-18.6 13.2-38 25.2-59.5 35.3-42.801 20.1-94.501 35.8-154.101 35.8-93.2 0-162-28.4-217.7-67.4-55.7-39.1-99.1-90.8-128.6-156-19.8-43.7-32.8-94.1-34.3-155.5-.7-30.4 3.1-60.4 8.6-86.4 14-65.6 41.5-117 76.3-161.3 34.8-44.2 78.9-78.8 132.2-104.9 20.9-10.2 44.3-18.9 69.8-25.2s53.7-10.6 84.2-10.6h.5c29.8-1.4 61.4 3.4 86.2 8.9 25.8 5.7 49.7 14.4 71.001 24 66 29.8 115.2 74.4 154.8 130.1 26.1 36.499 45.7 80.299 58.4 131.4zm-300.001 260.6c2.4-9.6 1.7-21.9 1.7-34.6v-289c0-12.4-1.4-22-5-31-3.3-8.2-8.4-15.7-14.4-21.8-11.7-11.9-29.3-22.6-51.4-20.9-10.7.8-19.6 4.2-27.4 9.1-14.5 9.2-25.5 23.3-30 42-2.3 9.5-2.2 21.6-2.2 34.1v289c0 6.2-.3 12.2.5 17.5 2.1 15.2 8.9 27.4 17.8 36.5 11.5 11.7 29.3 21.5 52.3 19 29.7-3.2 51.5-22.9 58.1-49.9z" fill="#002885" fill-rule="nonzero" transform="matrix(.196819 0 0 .196819 100 122.323)"/></svg>
